_includes/icons/color-internet-explorer.svg

<svg fill="#666" height="50" viewBox="0 0 48 48" width="50" xmlns="http://www.w3.org/2000/svg"><path d="m29.398438 8.398438c1.101562-.699219 5.300781-3.296875 8.800781-3.296875 6.601562 0 3.5 7.699218 3.5 7.699218l.199219.199219c3.800781-9.699219-3.5-9-3.5-9-4.097657 0-9.296875 3.398438-10.398438 4.199219-1-.097656-2-.199219-3.101562-.199219-15.199219 0-17.5 11.601563-17.796875 15-.101563.5-.101563.800781-.101563.800781v.199219c0-.101562 0-.199219 0-.300781 6.101563-8.699219 14.5-12.199219 14.5-12.199219v.601563c-12.5 8.5-15.5 21.097656-16.199219 23.597656-.800781 2.601562-.300781 8.300781 5 8.300781 5.300782 0 10.398438-4.199219 10.398438-4.199219s1.199219.199219 4.300781.199219c13.199219 0 16.699219-12 16.699219-12h-11.699219s-1.199219 4-5.398437 4c-5.800782 0-5.601563-6-5.601563-6h23c.398438-5.5-1.101562-9.300781-3.300781-11.898437-1.800781-2.601563-4.699219-4.800782-9.300781-5.703125zm-9.398438 31.203125s-7.800781 4.898437-11.398437 1.5c-1.902344-3.402344 1.199218-8.203125 1.199218-8.203125s2.398438 4.902343 10.199219 6.703125zm-1-18.601563s-.101562-5 5.5-5c5.398438 0 5.5 5 5.5 5z" fill="#29b6f6"/></svg>

<svg xmlns="http://www.w3.org/2000/svg" viewBox="0 0 48 48" width="50" height="50" fill="#666"><path d="M 29.398438 8.398438 C 30.5 7.699219 34.699219 5.101563 38.199219 5.101563 C 44.800781 5.101563 41.699219 12.800781 41.699219 12.800781 L 41.898438 13 C 45.699219 3.300781 38.398438 4 38.398438 4 C 34.300781 4 29.101563 7.398438 28 8.199219 C 27 8.101563 26 8 24.898438 8 C 9.699219 8 7.398438 19.601563 7.101563 23 C 7 23.5 7 23.800781 7 23.800781 C 7 23.898438 7 24 7 24 C 7 23.898438 7 23.800781 7 23.699219 C 13.101563 15 21.5 11.5 21.5 11.5 L 21.5 12.101563 C 9 20.601563 6 33.199219 5.300781 35.699219 C 4.5 38.300781 5 44 10.300781 44 C 15.601563 44 20.699219 39.800781 20.699219 39.800781 C 20.699219 39.800781 21.898438 40 25 40 C 38.199219 40 41.699219 28 41.699219 28 L 30 28 C 30 28 28.800781 32 24.601563 32 C 18.800781 32 19 26 19 26 L 42 26 C 42.398438 20.5 40.898438 16.699219 38.699219 14.101563 C 36.898438 11.5 34 9.300781 29.398438 8.398438 Z M 20 39.601563 C 20 39.601563 12.199219 44.5 8.601563 41.101563 C 6.699219 37.699219 9.800781 32.898438 9.800781 32.898438 C 9.800781 32.898438 12.199219 37.800781 20 39.601563 Z M 18.800781 10.300781 C 18.800781 10.300781 18.699219 10.300781 18.800781 10.300781 Z M 19 21 C 19 21 18.898438 16 24.5 16 C 29.898438 16 30 21 30 21 Z" fill="#29b6f6"/></svg>
